src/assets/icon-wifi-2.svg

<svg width="21" height="21" viewBox="0 0 21 21" fill="none" xmlns="http://www.w3.org/2000/svg">
<g clip-path="url(#clip0)">
<path d="M10.5495 18.4018C11.9045 18.4018 13.0029 17.3034 13.0029 15.9485C13.0029 14.5935 11.9045 13.4951 10.5495 13.4951C9.19459 13.4951 8.09619 14.5935 8.09619 15.9485C8.09619 17.3034 9.19459 18.4018 10.5495 18.4018Z" fill="#858997"/>
<path d="M16.4129 10.0379C16.3765 10.0004 16.3381 9.96706 16.3007 9.93268L16.1905 9.82852C16.1723 9.8093 16.152 9.79515 16.1288 9.77694C12.9564 6.89483 8.10132 7.0091 5.07358 10.0368L4.71863 10.3928L4.22715 10.8843C3.62848 11.483 3.63151 12.4588 4.23119 13.0585C4.83189 13.6602 5.80776 13.6612 6.40542 13.0626L7.25286 12.2151C9.17832 10.2907 12.3102 10.2907 14.2347 12.2141L14.8465 12.8067C15.4391 13.3993 16.4059 13.3983 17.0015 12.8016C17.2897 12.5144 17.4485 12.1312 17.4495 11.7236C17.4505 11.3181 17.2938 10.9348 17.0055 10.6487L16.4129 10.0379Z" fill="#858997"/>
<path opacity="0.2" d="M20.5926 7.00493L20.0829 6.49525C20.0809 6.49323 20.0799 6.49019 20.0758 6.48918L19.6733 6.08467C19.6026 6.0149 19.5257 5.95422 19.4448 5.90163C14.2742 1.36205 6.40955 1.50161 1.40377 6.31727C1.3795 6.33951 1.3522 6.35468 1.32793 6.37895L0.407675 7.30022C-0.13841 7.84529 -0.135376 8.73217 0.413742 9.28129C0.96185 9.8294 1.84873 9.83344 2.39482 9.28635L3.31507 8.36711C3.32114 8.35902 3.3262 8.35194 3.33226 8.34688C7.38037 4.43631 13.8019 4.41204 17.8824 8.26699L18.6065 8.99207C19.1515 9.53714 20.0404 9.53512 20.5885 8.98701C21.1356 8.43789 21.1377 7.55 20.5926 7.00493Z" fill="#858997"/>
</g>
<defs>
<clipPath id="clip0">
<rect width="21" height="21" fill="white"/>
</clipPath>
</defs>
</svg>

<svg width="21" height="21" fill="none" xmlns="http://www.w3.org/2000/svg"><g clip-path="url(#a)" fill="#858997"><path d="M10.55 18.402a2.453 2.453 0 1 0 0-4.907 2.453 2.453 0 0 0 0 4.907z"/><path d="M16.413 10.038c-.037-.038-.075-.07-.112-.105l-.11-.104c-.019-.02-.039-.034-.062-.052a8.004 8.004 0 0 0-11.055.26l-.355.356-.492.491a1.54 1.54 0 0 0 .004 2.175c.6.601 1.577.602 2.174.004l.848-.848a4.944 4.944 0 0 1 6.982 0l.612.592a1.526 1.526 0 0 0 2.603-1.083 1.5 1.5 0 0 0-.444-1.075l-.593-.611z"/><path opacity=".2" d="m20.593 7.005-.51-.51c-.002-.002-.003-.005-.007-.006l-.403-.404c-.07-.07-.147-.13-.228-.183-5.17-4.54-13.035-4.4-18.041.415-.024.023-.052.038-.076.062l-.92.921a1.4 1.4 0 0 0 .006 1.981 1.4 1.4 0 0 0 1.98.005l.921-.919c.006-.008.011-.015.017-.02 4.048-3.91 10.47-3.935 14.55-.08l.724.725a1.403 1.403 0 0 0 1.982-.005c.548-.55.55-1.437.005-1.982z"/></g><defs><clipPath id="a"><path fill="#fff" d="M0 0h21v21H0z"/></clipPath></defs></svg>
